icons/1_Primary/Invision Community.svg

<svg width="1024" height="1024" viewBox="0 0 1024 1024" fill="none" xmlns="http://www.w3.org/2000/svg">
<g clip-path="url(#clip0_2_2529)">
<path d="M512 1024C794.77 1024 1024 794.77 1024 512C1024 229.23 794.77 0 512 0C229.23 0 0 229.23 0 512C0 794.77 229.23 1024 512 1024Z" fill="#9ABEFF"/>
<path d="M527.33 634.63C525.28 637.63 523.56 641 520.88 643.57C518.56 645.5 515.81 647.28 512.67 647.25C507.36 647.63 502.67 643.98 499.98 639.7C494.72 631.47 313.25 352.7 290.84 318.39C287.45 313.15 282.75 307.24 285.17 300.61C287.38 296.13 292.79 294.61 297.43 294.85H727.97C732.34 294.91 737.37 296.8 739.03 301.2C740.31 305.3 738.86 309.71 736.59 313.2C724.5 331.69 692.94 380.2 689.2 386C681.42 397.8 543.57 609.74 527.33 634.63ZM738.92 685.39V543.14C738.98 539.6 739.04 535.68 736.92 532.68C736.463 532.102 735.855 531.662 735.163 531.408C734.471 531.154 733.723 531.095 733 531.24C732.587 531.278 732.187 531.407 731.83 531.62C729.328 533.139 727.188 535.187 725.56 537.62C719.01 546.57 628.46 668.81 616.8 684.68C609.93 694.03 602.92 703.29 596.13 712.68C594.987 714.198 594.19 715.948 593.796 717.807C593.402 719.666 593.421 721.589 593.85 723.44C595.31 727.22 599.62 728.91 603.41 729.08H717.21C727.54 729.74 736.82 721.42 738.72 711.51C739.26 702.86 738.76 694.11 738.92 685.39ZM430.92 719.22C430.66 716.22 428.81 713.57 427.16 711.12C420.16 701.72 306.36 547.8 298.29 536.9C297.292 535.552 296.181 534.291 294.97 533.13C292.76 531.37 289.57 530.2 287.3 532.48C285.04 535.26 285.72 541.81 285.64 546.54V709.2C285.64 712.31 286.83 715.26 288.09 718.05C291.048 723.188 295.866 726.993 301.55 728.68C302.997 728.934 304.461 729.081 305.93 729.12H421.21C425.39 729.02 430.46 726.42 430.91 721.96C431.034 721.074 431.034 720.175 430.91 719.29L430.92 719.22Z" fill="white"/>
</g>
<defs>
<clipPath id="clip0_2_2529">
<rect width="1024" height="1024" fill="white"/>
</clipPath>
</defs>
</svg>

<svg xmlns="http://www.w3.org/2000/svg" viewBox="0 0 1024 1024">
   <circle cx="512" cy="512" r="512" style="fill:#4b9bd0"/>
   <path d="M527.33 634.63c-2.05 3-3.77 6.37-6.45 8.94-2.32 1.93-5.07 3.71-8.21 3.68-5.31.38-10-3.27-12.69-7.55-5.26-8.23-186.73-287-209.14-321.31-3.39-5.24-8.09-11.15-5.67-17.78 2.21-4.48 7.62-6 12.26-5.76h430.54c4.37.06 9.4 1.95 11.06 6.35 1.28 4.1-.17 8.51-2.44 12-12.09 18.49-43.65 67-47.39 72.8-7.78 11.8-145.63 223.74-161.87 248.63zm211.59 50.76V543.14c.06-3.54.12-7.46-2-10.46a4 4 0 0 0-3.92-1.44 2.78 2.78 0 0 0-1.17.38 20.08 20.08 0 0 0-6.27 6c-6.55 8.95-97.1 131.19-108.76 147.06-6.87 9.35-13.88 18.61-20.67 28a13 13 0 0 0-2.28 10.76c1.46 3.78 5.77 5.47 9.56 5.64h113.8c10.33.66 19.61-7.66 21.51-17.57.54-8.65.04-17.4.2-26.12zm-308 33.83c-.26-3-2.11-5.65-3.76-8.1-7-9.4-120.8-163.32-128.87-174.22a29.78 29.78 0 0 0-3.32-3.77c-2.21-1.76-5.4-2.93-7.67-.65-2.26 2.78-1.58 9.33-1.66 14.06V709.2c0 3.11 1.19 6.06 2.45 8.85a23.12 23.12 0 0 0 13.46 10.63 29.91 29.91 0 0 0 4.38.44h115.28c4.18-.1 9.25-2.7 9.7-7.16a9.6 9.6 0 0 0 0-2.67z" style="fill:#fff"/>
</svg>
